<?xml version="1.0" encoding="UTF-8"?>
<map version="1.10" tiledversion="1.12.1" orientation="orthogonal" renderorder="right-down" width="83" height="73" tilewidth="32" tileheight="32" infinite="0" nextlayerid="3" nextobjectid="1">
 <editorsettings>
  <export target="../public/assets/maps/tilemaps/world-map.json" format="json"/>
 </editorsettings>
 <tileset firstgid="1" name="tiles" tilewidth="32" tileheight="32" tilecount="442" columns="17">
  <image source="../public/assets/maps/tilesets/tiles.png" width="544" height="832"/>
  <tile id="0">
   <properties>
    <property name="collides" type="bool" value="true"/>
   </properties>
  </tile>
  <tile id="1">
   <properties>
    <property name="collides" type="bool" value="true"/>
   </properties>
  </tile>
  <tile id="17">
   <properties>
    <property name="collides" type="bool" value="true"/>
   </properties>
  </tile>
  <tile id="18">
   <properties>
    <property name="collides" type="bool" value="true"/>
   </properties>
  </tile>
  <tile id="34">
   <properties>
    <property name="collides" type="bool" value="true"/>
   </properties>
  </tile>
  <tile id="35">
   <properties>
    <property name="collides" type="bool" value="true"/>
   </properties>
  </tile>
  <tile id="36">
   <properties>
    <property name="collides" type="bool" value="true"/>
   </properties>
  </tile>
  <tile id="51">
   <properties>
    <property name="collides" type="bool" value="true"/>
   </properties>
  </tile>
  <tile id="52">
   <properties>
    <property name="collides" type="bool" value="true"/>
   </properties>
  </tile>
  <tile id="68">
   <properties>
    <property name="collides" type="bool" value="true"/>
   </properties>
  </tile>
  <tile id="69">
   <properties>
    <property name="collides" type="bool" value="true"/>
   </properties>
  </tile>
  <tile id="85">
   <properties>
    <property name="collides" type="bool" value="true"/>
   </properties>
  </tile>
  <tile id="86">
   <properties>
    <property name="collides" type="bool" value="true"/>
   </properties>
  </tile>
 </tileset>
 <tileset firstgid="443" name="animated-tiles" tilewidth="32" tileheight="32" tilecount="132" columns="11">
  <image source="../public/assets/maps/tilesets/animated-tiles.png" width="352" height="384"/>
  <tile id="11">
   <animation>
    <frame tileid="11" duration="100"/>
    <frame tileid="12" duration="100"/>
    <frame tileid="13" duration="100"/>
    <frame tileid="14" duration="100"/>
    <frame tileid="15" duration="100"/>
    <frame tileid="16" duration="100"/>
   </animation>
  </tile>
  <tile id="77">
   <animation>
    <frame tileid="77" duration="250"/>
    <frame tileid="78" duration="250"/>
    <frame tileid="79" duration="250"/>
    <frame tileid="80" duration="250"/>
   </animation>
  </tile>
  <tile id="110">
   <properties>
    <property name="collides" type="bool" value="true"/>
   </properties>
   <animation>
    <frame tileid="110" duration="100"/>
    <frame tileid="111" duration="100"/>
    <frame tileid="112" duration="100"/>
    <frame tileid="113" duration="100"/>
    <frame tileid="114" duration="100"/>
    <frame tileid="115" duration="100"/>
    <frame tileid="116" duration="100"/>
    <frame tileid="117" duration="100"/>
    <frame tileid="118" duration="100"/>
    <frame tileid="119" duration="100"/>
    <frame tileid="120" duration="100"/>
   </animation>
  </tile>
  <tile id="111">
   <properties>
    <property name="collides" type="bool" value="true"/>
   </properties>
  </tile>
  <tile id="112">
   <properties>
    <property name="collides" type="bool" value="true"/>
   </properties>
  </tile>
  <tile id="113">
   <properties>
    <property name="collides" type="bool" value="true"/>
   </properties>
  </tile>
  <tile id="114">
   <properties>
    <property name="collides" type="bool" value="true"/>
   </properties>
  </tile>
  <tile id="115">
   <properties>
    <property name="collides" type="bool" value="true"/>
   </properties>
  </tile>
  <tile id="116">
   <properties>
    <property name="collides" type="bool" value="true"/>
   </properties>
  </tile>
  <tile id="117">
   <properties>
    <property name="collides" type="bool" value="true"/>
   </properties>
  </tile>
  <tile id="118">
   <properties>
    <property name="collides" type="bool" value="true"/>
   </properties>
  </tile>
  <tile id="119">
   <properties>
    <property name="collides" type="bool" value="true"/>
   </properties>
  </tile>
  <tile id="120">
   <properties>
    <property name="collides" type="bool" value="true"/>
   </properties>
  </tile>
  <tile id="121">
   <properties>
    <property name="collides" type="bool" value="true"/>
   </properties>
   <animation>
    <frame tileid="121" duration="250"/>
    <frame tileid="122" duration="250"/>
    <frame tileid="123" duration="250"/>
    <frame tileid="124" duration="250"/>
    <frame tileid="125" duration="250"/>
    <frame tileid="126" duration="250"/>
    <frame tileid="127" duration="250"/>
    <frame tileid="128" duration="250"/>
    <frame tileid="129" duration="250"/>
    <frame tileid="130" duration="250"/>
    <frame tileid="131" duration="250"/>
   </animation>
  </tile>
  <tile id="122">
   <properties>
    <property name="collides" type="bool" value="true"/>
   </properties>
  </tile>
  <tile id="123">
   <properties>
    <property name="collides" type="bool" value="true"/>
   </properties>
   <animation>
    <frame tileid="123" duration="150"/>
    <frame tileid="124" duration="150"/>
    <frame tileid="125" duration="150"/>
    <frame tileid="126" duration="150"/>
    <frame tileid="127" duration="150"/>
    <frame tileid="128" duration="150"/>
    <frame tileid="129" duration="150"/>
    <frame tileid="130" duration="150"/>
    <frame tileid="131" duration="150"/>
    <frame tileid="121" duration="150"/>
    <frame tileid="122" duration="150"/>
   </animation>
  </tile>
  <tile id="124">
   <properties>
    <property name="collides" type="bool" value="true"/>
   </properties>
  </tile>
  <tile id="125">
   <properties>
    <property name="collides" type="bool" value="true"/>
   </properties>
  </tile>
  <tile id="126">
   <properties>
    <property name="collides" type="bool" value="true"/>
   </properties>
  </tile>
  <tile id="127">
   <properties>
    <property name="collides" type="bool" value="true"/>
   </properties>
   <animation>
    <frame tileid="127" duration="120"/>
    <frame tileid="128" duration="120"/>
    <frame tileid="129" duration="120"/>
    <frame tileid="130" duration="120"/>
    <frame tileid="131" duration="120"/>
    <frame tileid="121" duration="120"/>
    <frame tileid="122" duration="120"/>
    <frame tileid="123" duration="120"/>
    <frame tileid="124" duration="120"/>
    <frame tileid="125" duration="120"/>
    <frame tileid="126" duration="120"/>
   </animation>
  </tile>
  <tile id="128">
   <properties>
    <property name="collides" type="bool" value="true"/>
   </properties>
  </tile>
  <tile id="129">
   <properties>
    <property name="collides" type="bool" value="true"/>
   </properties>
  </tile>
  <tile id="130">
   <properties>
    <property name="collides" type="bool" value="true"/>
   </properties>
  </tile>
  <tile id="131">
   <properties>
    <property name="collides" type="bool" value="true"/>
   </properties>
  </tile>
 </tileset>
 <layer id="2" name="Ground" width="83" height="73" locked="1">
  <data encoding="csv">
553,553,562,563,562,562,563,563,553,563,563,553,563,562,563,563,562,562,562,562,553,562,553,553,553,563,553,553,563,562,562,553,563,553,562,562,563,553,562,562,553,553,563,562,563,553,553,562,553,562,562,563,562,553,553,562,562,553,562,553,553,553,553,562,553,563,562,563,563,562,563,553,562,553,553,553,553,562,553,562,563,553,553,
553,553,562,562,563,553,562,553,563,563,562,562,562,563,553,553,553,563,563,563,553,562,562,553,563,563,563,562,553,562,563,562,553,562,562,553,562,562,562,563,553,563,563,553,563,563,563,563,553,563,553,553,553,562,553,563,563,553,553,553,553,562,563,563,562,563,553,562,563,553,562,553,563,563,562,563,563,563,563,553,562,553,562,
562,553,562,563,553,562,563,563,562,563,553,563,553,553,553,562,563,562,553,562,553,562,562,562,553,563,563,563,553,562,562,563,562,562,563,562,553,562,562,562,553,563,563,563,563,563,563,562,562,563,562,553,563,562,562,562,563,553,553,562,563,562,562,553,553,563,562,563,562,562,562,563,553,553,563,563,562,562,553,553,563,553,553,
562,562,563,553,553,562,563,563,562,553,563,563,562,562,562,562,563,562,563,562,562,563,563,563,562,553,562,562,553,563,553,563,563,563,562,563,562,553,562,562,563,553,553,563,562,563,563,553,562,553,562,553,563,563,563,562,553,553,563,563,553,553,562,563,563,562,553,553,562,553,563,553,562,562,562,553,563,563,563,553,562,562,563,
553,563,562,562,553,553,562,563,563,562,562,562,562,562,562,562,563,563,553,563,563,553,563,563,562,563,562,563,553,563,563,562,563,563,562,563,562,553,563,553,562,553,563,553,553,553,562,553,553,553,553,563,553,562,553,562,553,553,562,553,562,563,563,563,563,563,563,553,562,562,562,562,553,562,562,563,562,563,553,562,553,563,562,
562,553,553,553,563,553,562,563,562,553,553,563,553,562,553,562,563,563,562,563,563,562,553,563,562,553,553,563,562,563,562,553,553,563,562,553,563,562,562,563,562,562,553,563,553,553,553,553,553,562,553,563,562,563,563,563,562,553,562,553,563,553,562,553,553,562,562,553,562,562,563,562,562,562,563,553,563,563,562,563,563,562,553,
553,553,553,563,562,562,553,553,553,553,563,553,562,563,553,553,553,553,563,562,562,563,563,553,563,563,562,563,553,553,553,563,563,563,563,553,562,553,563,553,562,563,562,562,562,562,563,553,563,563,562,553,553,562,553,553,563,562,563,562,553,562,553,563,553,563,563,553,562,562,563,562,553,562,563,562,562,563,563,553,553,562,562,
562,553,563,563,563,563,562,562,553,563,563,562,553,562,553,553,553,563,563,563,562,553,563,563,563,563,563,553,553,562,563,563,563,562,563,563,563,562,563,553,562,553,563,563,562,553,563,553,562,562,563,553,563,563,553,562,553,562,563,553,553,562,553,553,562,562,563,553,553,553,563,563,563,562,562,562,553,562,562,562,562,562,553,
563,563,553,562,562,562,563,563,562,553,256,256,256,256,256,256,256,256,256,256,256,256,256,256,256,256,256,256,256,256,256,256,256,256,256,256,256,256,256,256,256,256,256,256,256,256,256,256,256,256,256,256,256,256,256,256,256,256,256,256,256,256,256,256,256,256,256,256,256,256,256,256,256,563,563,563,562,562,562,563,553,562,563,
553,563,563,553,562,562,563,563,562,553,256,256,256,256,256,256,256,256,256,256,256,256,256,256,256,256,256,256,256,256,256,256,256,256,256,256,256,256,256,256,256,256,256,256,256,256,256,256,256,256,256,256,256,256,256,256,256,256,256,256,256,256,256,256,256,256,256,256,256,256,256,256,256,562,562,553,563,553,562,563,563,562,562,
562,553,563,562,562,562,563,563,553,563,256,256,256,256,256,256,256,256,256,256,256,256,256,256,256,256,256,256,256,256,256,256,256,256,256,256,256,256,256,256,256,256,256,256,256,256,256,256,256,256,256,256,256,256,256,256,256,256,256,256,256,256,256,256,256,256,256,256,256,256,256,256,256,553,562,562,563,563,553,562,563,562,553,
563,563,562,563,563,553,563,563,553,563,256,256,256,256,256,256,256,256,256,256,256,256,256,256,256,256,256,256,256,256,256,256,256,256,256,256,256,256,256,256,256,256,256,256,256,256,256,256,256,256,256,256,256,256,256,256,256,256,256,256,256,256,256,256,256,256,256,256,256,256,256,256,256,562,553,563,553,563,563,563,553,562,563,
553,563,562,563,553,562,563,563,562,562,256,256,256,256,256,256,256,256,256,256,256,256,256,256,256,256,256,256,256,256,256,256,256,256,256,256,256,256,256,256,256,256,256,256,256,256,256,256,256,256,256,256,256,256,256,256,256,256,256,256,256,256,256,256,256,256,256,256,256,256,256,256,256,562,553,562,563,562,553,563,562,553,553,
563,563,553,563,563,563,563,563,553,562,256,256,256,256,256,256,256,256,256,256,256,256,256,256,256,256,256,256,256,256,256,256,256,256,256,256,256,256,256,256,256,256,256,256,256,256,256,256,256,256,256,256,256,256,256,256,256,256,256,256,256,256,256,256,256,256,256,256,256,256,256,256,256,563,562,562,563,563,563,553,563,562,563,
553,562,562,553,563,563,562,562,563,563,256,256,256,256,256,256,256,256,256,256,256,256,256,256,256,256,256,256,256,256,256,256,256,256,256,256,256,256,256,256,256,256,256,256,256,256,256,256,256,256,256,256,256,256,256,256,256,256,256,256,256,256,256,256,256,256,256,256,256,256,256,256,256,563,553,553,563,563,553,562,562,562,563,
553,562,563,562,562,553,553,563,563,562,256,256,256,256,256,256,256,256,256,256,256,256,256,256,256,256,256,256,256,256,256,256,256,256,256,256,256,256,256,256,256,256,256,256,256,256,256,256,256,256,256,256,256,256,256,256,256,256,256,256,256,256,256,256,256,256,256,256,256,256,256,256,256,553,553,562,553,553,563,563,563,563,563,
563,563,562,562,553,563,553,553,563,553,256,256,256,256,256,256,256,256,256,256,256,256,256,256,256,256,256,256,256,256,256,256,256,256,256,256,256,256,256,256,256,256,256,256,256,256,256,256,256,256,256,256,256,256,256,256,256,256,256,256,256,256,256,256,256,256,256,256,256,256,256,256,256,563,563,562,562,563,563,553,562,553,563,
562,553,562,563,553,562,562,553,553,563,256,256,256,256,256,256,256,256,256,256,256,256,256,256,256,256,256,256,256,256,256,256,256,256,256,256,256,256,256,256,256,256,256,256,256,256,256,256,256,256,256,256,256,256,256,256,256,256,256,256,256,256,256,256,256,256,256,256,256,256,256,256,256,562,553,562,563,553,563,562,553,562,563,
553,553,553,553,563,562,562,563,562,563,256,256,256,256,256,256,256,256,256,256,256,256,256,256,256,256,256,256,256,256,256,256,256,256,256,256,256,256,256,256,256,256,256,256,256,256,256,256,256,256,256,256,256,256,256,256,256,256,256,256,256,256,256,256,256,256,256,256,256,256,256,256,256,563,563,553,562,562,562,553,562,553,553,
563,562,562,563,563,562,562,553,553,553,256,256,256,256,256,256,256,256,256,256,256,256,256,256,256,256,256,256,256,256,256,256,256,256,256,256,256,256,256,256,256,256,256,256,103,103,256,256,256,256,256,256,256,256,256,256,256,256,256,256,256,256,256,256,256,256,256,256,256,256,256,256,256,562,563,563,562,563,553,562,563,563,553,
553,563,553,563,562,553,553,563,553,563,256,256,256,256,256,256,256,256,256,256,256,256,256,256,256,256,256,256,256,256,256,256,256,256,256,256,256,256,256,256,256,256,256,103,103,103,103,256,256,256,256,256,256,256,256,256,256,256,256,256,256,256,256,256,256,256,256,256,256,256,256,256,256,563,553,562,553,553,563,562,563,563,562,
553,562,563,553,553,563,563,562,563,553,256,256,256,256,256,256,256,256,256,256,256,256,256,256,256,256,256,256,256,256,256,256,256,256,256,256,256,256,256,256,256,256,256,103,103,103,103,256,256,256,256,256,256,103,103,256,256,256,256,256,256,256,256,256,205,205,205,205,256,256,256,256,256,562,563,562,553,562,562,563,563,563,562,
562,553,563,562,563,553,562,562,553,553,256,188,188,256,256,256,256,256,188,188,188,256,256,256,256,256,256,256,256,256,256,256,103,256,256,256,256,256,256,256,256,103,103,103,103,103,103,103,256,256,256,256,103,103,103,103,205,205,205,256,256,256,256,205,205,205,205,205,256,256,256,256,256,553,562,563,563,562,563,553,562,553,562,
563,553,562,562,563,562,553,563,562,562,188,188,188,188,188,188,256,188,188,188,188,188,256,188,188,188,188,188,188,256,256,103,103,103,103,103,256,256,256,256,103,103,103,103,103,103,103,103,256,256,256,103,103,103,103,103,103,205,205,205,256,256,256,205,205,205,205,205,205,256,256,256,256,553,563,562,563,562,553,553,553,562,562,
563,562,563,562,563,553,562,553,563,553,188,188,188,188,188,188,188,188,188,188,188,188,188,188,188,188,188,188,188,188,103,103,103,103,103,103,103,103,103,103,103,103,103,103,103,103,103,103,103,103,103,103,103,103,103,103,205,205,205,205,256,256,205,205,205,205,205,205,205,205,205,205,205,562,553,563,553,553,563,553,563,563,553,
553,563,562,553,562,562,553,553,562,562,188,188,188,188,188,188,188,188,188,188,188,188,188,188,188,188,188,188,188,188,103,103,103,103,103,103,103,103,103,103,103,103,103,103,103,103,103,103,103,103,103,103,103,103,103,205,205,205,205,205,205,205,205,205,205,205,205,205,205,205,205,205,205,553,553,562,563,562,553,562,553,563,553,
563,562,553,563,563,562,553,563,563,553,188,188,188,188,188,188,188,188,188,188,188,188,188,188,188,188,188,188,188,188,188,103,103,103,103,103,103,103,103,103,103,103,103,103,103,103,103,103,103,103,103,103,103,103,205,205,205,205,205,205,205,205,205,205,205,205,205,205,205,205,205,205,205,563,562,563,553,553,553,563,563,553,563,
562,562,562,563,563,562,562,553,562,562,188,188,188,188,188,188,188,188,188,188,188,188,188,188,188,188,188,188,188,188,188,103,103,103,103,103,103,103,103,103,103,103,103,103,103,103,103,103,103,103,103,103,103,205,205,205,205,205,205,205,205,205,205,205,205,205,205,205,205,205,205,205,205,563,563,563,563,563,553,562,553,553,553,
553,553,562,553,553,553,562,553,553,553,188,188,188,188,188,188,188,188,188,188,188,188,188,188,188,188,188,188,188,188,188,103,103,103,103,103,103,103,103,103,103,103,103,103,103,103,103,103,103,103,103,103,103,205,205,205,205,205,205,205,205,205,205,205,205,205,205,205,205,205,205,205,205,562,553,562,563,563,563,562,562,553,562,
563,563,563,562,562,553,563,563,553,553,188,188,188,188,188,188,188,188,188,188,188,188,188,188,188,188,188,188,188,188,188,188,103,103,103,103,103,103,103,103,103,103,103,103,103,103,103,103,103,103,103,103,205,205,205,205,205,205,205,205,205,205,205,205,205,205,205,205,205,205,205,205,205,563,562,553,563,553,563,562,553,553,553,
563,563,553,562,562,553,563,562,562,553,188,188,188,188,188,188,188,188,188,188,188,188,188,188,188,188,188,188,188,188,188,188,103,103,103,103,103,103,103,103,103,103,103,103,103,103,103,103,103,103,103,103,205,205,205,205,205,205,205,205,205,205,205,205,205,205,205,205,205,205,205,205,205,553,553,553,563,553,562,563,563,553,553,
562,562,562,553,563,553,553,553,562,562,188,188,188,188,188,188,188,188,188,188,188,188,188,188,188,188,188,188,188,188,188,188,103,103,103,103,103,103,103,103,103,103,103,103,103,103,103,103,103,103,103,205,205,205,205,205,205,205,205,205,205,205,205,205,205,205,205,205,205,205,205,205,205,562,562,562,563,563,563,553,563,563,553,
553,562,562,562,553,563,563,563,563,553,188,188,188,188,188,188,188,188,188,188,188,188,188,188,188,188,188,188,188,188,188,188,103,103,103,103,103,103,103,103,103,103,103,103,103,103,103,103,103,103,103,205,205,205,205,205,205,205,205,205,205,205,205,205,205,205,205,205,205,205,205,205,205,562,553,563,563,553,553,563,563,562,563,
562,563,562,563,563,562,563,553,553,553,188,188,188,188,188,188,188,188,188,188,188,188,188,188,188,188,188,188,188,188,188,188,103,103,103,103,103,103,103,103,103,103,103,103,103,103,103,103,103,103,103,205,205,205,205,205,205,205,205,205,205,205,205,205,205,205,205,205,205,205,205,103,103,562,563,553,563,553,563,562,562,553,562,
553,553,553,562,562,553,553,553,563,553,188,188,188,188,188,188,188,188,188,188,188,188,188,188,188,188,188,188,188,188,188,103,103,103,103,103,103,103,103,103,103,103,103,103,103,103,103,103,103,103,103,205,205,205,205,205,205,205,205,205,205,205,205,205,205,205,205,103,103,103,103,103,103,553,563,553,553,562,562,562,553,563,553,
553,563,563,563,562,563,562,562,553,562,188,188,188,188,188,188,188,188,188,188,188,188,188,188,188,188,188,188,188,188,188,103,103,103,103,103,103,103,103,103,103,103,103,103,103,103,103,103,103,103,103,205,205,205,205,205,205,205,205,205,205,205,205,103,103,103,103,103,103,103,103,103,103,562,563,553,563,563,563,563,562,553,562,
563,553,563,553,563,553,563,562,563,553,188,188,188,188,188,188,188,188,188,188,188,188,188,188,188,188,188,188,188,188,188,103,103,222,222,222,222,222,222,222,103,103,103,103,103,103,103,103,103,103,205,205,205,205,205,205,205,205,205,205,205,205,103,103,103,103,103,103,103,103,103,103,103,553,562,563,553,563,562,563,553,563,553,
562,563,563,553,553,553,563,563,563,563,188,188,188,188,188,188,188,188,188,188,188,188,188,188,188,188,188,188,188,188,103,103,222,222,222,222,222,222,222,222,222,222,103,103,103,103,103,103,103,103,205,205,205,205,205,205,205,205,205,205,205,103,103,103,103,103,103,103,103,103,103,103,103,563,563,553,563,562,563,553,553,562,553,
562,563,562,553,553,562,563,562,562,563,222,188,188,188,188,188,188,188,188,188,188,188,188,188,188,188,188,188,188,188,103,222,222,222,222,222,222,222,222,222,222,222,222,222,222,103,103,103,103,205,205,205,205,205,205,205,205,205,205,103,103,103,103,103,103,103,103,103,103,103,103,103,103,562,562,553,553,553,563,562,553,553,553,
563,562,553,562,553,562,562,553,562,553,222,188,188,188,188,188,188,188,188,188,188,188,188,188,188,188,188,188,188,188,222,222,222,222,222,222,222,222,222,222,222,222,222,222,222,103,103,103,103,205,205,205,205,205,205,103,103,103,103,103,103,103,103,103,103,103,103,103,103,103,103,103,103,553,562,563,553,563,562,553,553,553,562,
553,562,563,553,562,553,562,553,562,553,222,222,188,188,188,188,188,188,188,188,188,188,188,188,188,188,188,188,188,188,222,222,222,222,222,222,222,222,222,222,222,222,222,222,222,222,103,103,205,205,205,205,205,103,103,103,103,103,103,103,103,103,103,103,103,103,103,103,103,103,103,103,103,563,553,553,563,562,563,562,553,553,562,
562,562,553,563,562,562,553,563,563,562,222,222,222,188,188,188,188,188,188,188,188,188,188,188,188,188,188,188,188,222,222,222,222,222,222,222,222,222,222,222,222,222,222,222,222,222,222,222,205,205,205,205,103,103,103,103,103,103,103,103,103,103,103,103,103,103,103,103,103,103,103,103,103,563,553,553,563,562,553,563,563,553,563,
563,562,563,553,563,562,563,553,553,563,222,222,222,222,222,188,188,188,188,188,188,188,188,188,188,188,188,188,188,222,222,222,222,222,222,222,222,222,222,222,222,222,222,222,222,222,222,222,222,222,205,205,103,103,103,103,103,103,103,103,103,103,103,103,103,103,103,103,103,103,103,103,103,563,562,563,563,553,563,563,562,553,553,
553,553,562,553,563,563,553,563,563,562,222,222,222,222,222,222,222,188,188,188,188,188,188,188,188,188,188,222,222,222,222,222,222,222,222,222,222,222,222,222,222,222,222,222,222,222,222,222,222,222,222,222,103,103,103,103,103,103,103,103,103,103,103,103,103,103,103,103,103,103,103,103,103,562,562,562,553,562,553,562,563,562,553,
563,553,553,563,563,553,553,563,563,553,222,222,222,222,222,222,222,222,222,222,222,222,222,222,222,222,222,222,222,222,222,222,222,222,222,222,222,222,222,222,222,222,222,222,222,222,222,222,222,222,222,222,222,103,103,103,103,103,103,103,103,103,103,103,103,103,103,103,103,103,103,103,103,563,563,563,562,553,553,553,553,563,562,
563,562,562,562,562,553,553,563,553,562,222,222,222,222,222,222,222,222,222,222,222,222,222,222,222,222,222,222,222,222,222,222,222,222,222,222,222,222,222,222,222,222,222,222,222,222,222,222,222,222,222,222,222,103,103,103,103,103,103,103,103,103,103,103,103,103,103,103,103,103,103,103,222,562,563,563,563,553,562,563,563,562,563,
563,563,563,563,563,563,562,563,562,553,222,222,222,222,222,222,222,222,222,222,222,222,222,222,222,222,222,222,222,222,222,222,222,222,222,222,222,222,222,222,222,222,222,222,222,222,222,222,222,222,222,222,222,222,222,222,103,103,103,103,222,222,222,103,103,103,222,222,103,103,222,222,222,563,553,563,563,562,562,563,553,562,563,
563,563,563,563,563,553,563,553,553,563,222,222,222,222,222,222,222,222,222,222,222,222,222,222,222,222,222,222,222,222,222,222,222,222,222,222,222,222,222,222,222,222,222,222,222,222,222,222,222,222,222,222,222,222,222,222,222,103,103,222,222,222,222,222,222,222,222,222,222,222,222,222,222,562,553,563,563,562,563,562,563,563,562,
553,563,563,553,563,563,562,563,562,553,222,222,222,222,222,222,222,222,222,222,222,222,222,222,222,222,222,222,222,222,222,222,222,222,222,222,222,222,222,222,222,222,222,222,222,222,222,222,222,222,222,222,222,222,222,222,222,222,103,222,222,222,222,222,222,222,222,222,222,222,222,222,222,562,553,553,562,562,563,553,553,563,563,
553,553,562,553,563,562,562,563,553,563,222,222,222,222,222,222,222,222,222,222,222,222,222,222,222,222,222,222,222,222,222,222,222,222,222,222,222,222,222,222,222,222,222,222,222,222,222,222,222,222,222,222,222,222,222,222,222,222,222,222,222,222,222,222,222,222,222,222,222,222,222,222,222,553,562,553,563,562,562,562,562,563,562,
563,562,563,553,562,562,562,563,553,553,222,222,222,222,222,222,222,222,222,222,222,222,222,222,222,222,222,222,222,222,222,222,222,222,222,222,222,222,222,222,222,222,222,222,222,222,222,222,222,222,222,222,222,222,222,222,222,222,222,222,222,222,222,222,222,222,222,222,222,222,222,222,222,553,563,553,553,562,553,563,562,562,563,
553,563,563,562,553,562,562,562,553,562,222,222,222,222,222,222,222,222,222,222,222,222,222,222,222,222,222,222,222,222,222,222,222,222,222,222,222,222,222,222,222,222,222,222,222,222,222,222,222,222,222,222,222,222,222,222,222,222,222,222,222,222,222,222,222,222,222,222,222,222,222,222,222,553,553,563,562,553,563,553,562,562,553,
563,563,562,562,563,563,553,553,562,553,222,222,222,222,222,222,222,222,222,222,222,222,222,222,222,222,222,222,222,222,222,222,222,222,222,222,222,222,222,222,222,222,222,222,222,222,222,222,222,222,222,222,222,222,222,222,222,222,222,222,222,222,222,222,222,222,222,222,222,222,222,222,222,553,562,553,563,562,553,562,562,553,562,
553,562,553,563,563,562,563,553,562,562,222,222,222,222,222,222,222,222,222,222,222,222,222,222,222,222,222,222,222,222,222,222,222,222,222,222,222,222,222,222,222,222,222,222,222,222,222,222,222,222,222,222,222,222,222,222,222,222,222,222,222,222,222,222,222,222,222,222,222,222,222,222,222,562,563,563,562,563,562,563,553,553,553,
562,562,562,562,563,553,553,553,553,562,222,222,222,222,222,222,222,222,222,222,222,222,222,222,222,222,222,222,222,222,222,222,222,222,222,222,222,222,222,222,222,222,222,222,222,222,222,222,222,222,222,222,222,222,222,222,222,222,222,222,222,222,222,222,222,222,222,222,222,222,222,222,222,562,563,563,553,563,563,553,553,553,553,
562,563,562,563,563,562,563,562,562,553,222,222,222,222,222,222,222,222,222,222,222,222,222,222,222,222,222,222,222,222,222,222,222,222,222,222,222,222,222,222,222,222,222,222,222,222,222,222,222,222,222,222,222,222,222,222,222,222,222,222,222,222,222,222,222,222,222,222,222,222,222,222,222,553,563,563,553,553,553,562,553,553,553,
562,562,553,563,563,553,562,553,562,563,222,222,222,222,222,222,222,222,222,222,222,222,222,222,222,222,222,222,222,222,222,222,222,222,222,222,222,222,222,222,222,222,222,222,222,222,222,222,222,222,222,222,222,222,222,222,222,222,222,222,222,222,222,222,222,222,222,222,222,222,222,222,222,562,562,553,553,553,563,563,553,553,553,
562,562,563,563,553,562,553,562,562,553,222,222,222,222,222,222,222,222,222,222,222,222,222,222,222,222,222,222,222,222,222,222,222,222,222,222,222,222,222,222,222,222,222,222,222,222,222,222,222,222,222,222,222,222,222,222,222,222,222,222,222,222,222,222,222,222,222,222,222,222,222,222,222,563,553,562,553,553,563,562,553,553,553,
562,563,562,553,562,563,553,553,553,563,222,222,222,222,222,222,222,222,222,222,222,222,222,222,222,222,222,222,222,222,222,222,222,222,222,222,222,222,222,222,222,222,222,222,222,222,222,222,222,222,222,222,222,222,222,222,222,222,222,222,222,222,222,222,222,222,222,222,222,222,222,222,222,562,553,562,563,553,563,562,563,553,553,
563,563,553,562,562,562,553,562,562,553,222,222,222,222,222,222,222,222,222,222,222,222,222,222,222,222,222,222,222,222,222,222,222,222,222,222,222,222,222,222,222,222,222,222,222,222,222,222,222,222,222,222,222,222,222,222,222,222,222,222,222,222,222,222,222,222,222,222,222,222,222,222,222,562,563,562,563,563,553,562,553,553,553,
553,563,562,562,553,562,553,553,553,562,222,222,222,222,222,222,222,222,222,222,222,222,222,222,222,222,222,222,222,222,222,222,222,222,222,222,222,222,222,222,222,222,222,222,222,222,222,222,222,222,222,222,222,222,222,222,222,222,222,222,222,222,222,222,222,222,222,222,222,222,222,222,222,553,563,553,562,553,562,562,553,553,553,
553,563,563,562,563,563,562,553,562,562,222,222,222,222,222,222,222,222,222,222,222,222,222,222,222,222,222,222,222,222,222,222,222,222,222,222,222,222,222,222,222,222,222,222,222,222,222,222,222,222,222,222,222,222,222,222,222,222,222,222,222,222,222,222,222,222,222,222,222,222,222,222,222,563,563,562,553,553,562,563,553,553,553,
562,562,562,553,562,562,553,563,553,553,222,222,222,222,222,222,222,222,222,222,222,222,222,222,222,222,222,222,222,222,222,222,222,222,222,222,222,222,222,222,222,222,222,222,222,222,222,222,222,222,222,222,222,222,222,222,222,222,222,222,222,222,222,222,222,222,222,222,222,222,222,222,222,562,553,562,562,563,562,563,553,553,553,
553,553,563,562,563,563,562,563,563,563,222,222,222,222,222,222,222,222,222,222,222,222,222,222,222,222,222,222,222,222,222,222,222,222,222,222,222,222,222,222,222,222,222,222,222,222,222,222,222,222,222,222,222,222,222,222,222,222,222,222,222,222,222,222,222,222,222,222,222,222,222,222,222,553,563,553,562,563,563,553,553,553,553,
562,553,563,563,563,563,563,553,563,563,222,222,222,222,222,222,222,222,222,222,222,222,222,222,222,222,222,222,222,222,222,222,222,222,222,222,222,222,222,222,222,222,222,222,222,222,222,222,222,222,222,222,222,222,222,222,222,222,222,222,222,222,222,222,222,222,222,222,222,222,222,222,222,563,562,563,553,563,562,563,553,553,553,
563,562,563,562,553,562,553,562,553,563,553,562,563,563,553,563,553,553,563,563,562,553,562,563,553,553,563,562,562,553,562,563,553,553,553,553,553,562,553,563,563,563,553,553,553,563,553,562,563,553,563,563,562,563,553,562,563,562,563,553,553,563,563,563,553,553,563,553,562,562,553,553,553,562,563,563,553,563,562,553,553,553,553,
562,563,562,553,563,562,562,553,563,562,563,563,563,553,553,562,553,553,562,553,562,563,563,553,563,562,563,553,562,559,560,553,563,562,562,563,553,563,553,562,553,562,563,562,553,553,553,563,563,553,553,553,563,563,563,563,563,562,553,553,553,562,562,562,563,562,562,563,563,563,563,553,562,553,563,553,553,563,563,563,553,553,553,
562,563,563,563,563,563,562,563,562,553,553,553,562,562,563,553,562,562,563,563,553,563,562,562,563,562,553,563,563,563,563,563,553,563,562,553,553,553,553,562,553,562,562,563,563,553,562,553,563,563,562,562,553,563,553,553,563,562,562,553,563,563,553,562,563,562,562,563,563,563,563,563,562,553,553,553,562,553,553,563,553,553,553,
553,562,563,553,563,553,562,563,553,562,553,553,553,553,563,563,562,563,562,553,553,563,553,563,562,553,562,553,562,563,563,562,553,553,553,562,562,562,553,553,553,553,563,562,563,562,553,562,562,563,553,562,553,563,563,563,562,553,562,563,562,562,562,563,563,553,562,553,553,563,562,563,553,563,562,553,553,562,563,562,553,553,553,
553,553,562,553,563,553,563,562,553,553,562,553,563,553,553,553,562,562,563,562,553,553,553,563,562,562,553,553,553,563,553,553,563,563,562,563,553,563,562,553,553,553,562,562,562,562,563,553,563,562,553,563,562,562,553,562,553,562,562,562,563,562,562,563,553,553,563,553,563,553,553,562,553,553,562,563,553,562,563,563,553,553,553,
563,553,553,553,562,563,563,563,563,563,562,562,563,553,553,562,562,562,563,553,562,562,553,553,553,553,562,562,562,563,553,562,563,563,562,553,563,553,563,563,563,553,562,563,562,553,562,562,562,563,563,563,562,563,562,562,563,563,553,563,562,553,553,562,562,553,553,553,563,562,563,553,563,553,563,553,563,553,562,563,553,553,553,
563,563,562,553,563,562,563,563,562,563,563,563,562,553,562,563,563,563,563,553,562,562,563,553,563,563,553,562,563,563,563,563,563,553,562,563,562,562,563,553,563,553,563,563,553,563,553,563,563,562,562,553,563,562,553,553,553,553,563,553,562,563,562,553,562,562,553,563,563,563,562,563,563,553,562,562,562,562,553,553,553,553,553,
553,563,553,562,563,562,562,553,563,563,553,553,562,562,553,553,553,562,553,563,553,562,562,563,562,553,562,563,563,563,553,553,553,553,553,562,553,562,562,563,562,563,563,563,562,562,562,553,563,563,553,553,562,563,562,562,562,553,563,563,563,563,563,562,553,563,553,562,562,563,563,562,553,563,563,562,563,562,553,553,553,553,553
</data>
 </layer>
 <layer id="1" name="Surface" width="83" height="73">
  <data encoding="csv">
0,0,0,0,0,0,0,0,0,0,0,0,0,0,0,0,0,0,0,0,0,0,0,0,0,0,0,0,0,0,0,0,0,0,0,0,0,0,0,0,0,0,0,0,0,0,0,0,0,0,0,0,0,0,0,0,0,0,0,0,0,0,0,0,0,0,0,0,0,0,0,0,0,0,0,0,0,0,0,0,0,0,0,
0,0,0,0,0,0,0,0,0,0,0,0,0,0,0,0,0,0,0,0,0,0,0,0,0,0,0,0,0,0,0,0,0,0,0,0,0,0,0,0,0,0,0,0,0,0,0,0,0,0,0,0,0,0,0,0,0,0,0,0,0,0,0,0,0,0,0,0,0,0,0,0,0,0,0,0,0,0,0,0,0,0,0,
0,0,0,0,0,0,0,0,0,0,0,0,0,0,0,0,0,0,0,0,0,0,0,0,0,0,0,0,0,0,0,0,0,0,0,0,0,0,0,0,0,0,0,0,0,0,0,0,0,0,0,0,0,0,0,0,0,0,0,0,0,0,0,0,0,0,0,0,0,0,0,0,0,0,0,0,0,0,0,0,0,0,0,
0,0,0,0,0,0,0,0,0,0,0,0,0,0,0,0,0,0,0,0,0,0,0,0,0,0,0,0,0,0,0,0,0,0,0,0,0,0,0,0,0,0,0,0,0,0,0,0,0,0,0,0,0,0,0,0,0,0,0,0,0,0,0,0,0,0,0,0,0,0,0,0,0,0,0,0,0,0,0,0,0,0,0,
0,0,0,0,0,0,0,0,0,0,0,0,0,0,0,0,0,0,0,0,0,0,0,0,0,0,0,0,0,0,0,0,0,0,0,0,0,0,0,0,0,0,0,0,0,0,0,0,0,0,0,0,0,0,0,0,0,0,0,0,0,0,0,0,0,0,0,0,0,0,0,0,0,0,0,0,0,0,0,0,0,0,0,
0,0,0,0,0,0,0,0,0,0,0,0,0,0,0,0,0,0,0,0,0,0,0,0,0,0,0,0,0,0,0,0,0,0,0,0,0,0,0,0,0,0,0,0,0,0,0,0,0,0,0,0,0,0,0,0,0,0,0,0,0,0,0,0,0,0,0,0,0,0,0,0,0,0,0,0,0,0,0,0,0,0,0,
0,0,0,0,0,0,0,0,0,0,0,0,0,0,0,0,0,0,0,0,0,0,0,0,0,0,0,0,0,0,0,0,0,0,0,0,0,0,0,0,0,0,0,0,0,0,0,0,0,0,0,0,0,0,0,0,0,0,0,0,0,0,0,0,0,0,0,0,0,0,0,0,0,0,0,0,0,0,0,0,0,0,0,
0,0,0,0,0,0,0,0,0,0,0,0,0,0,0,0,0,0,0,0,0,0,0,0,0,0,0,0,0,0,0,0,0,0,0,0,0,0,0,0,0,0,0,0,0,0,0,0,0,0,0,0,0,0,0,0,0,0,0,0,0,0,0,0,0,0,0,0,0,0,0,0,0,0,0,0,0,0,0,0,0,0,0,
0,0,0,0,0,0,0,0,0,0,454,0,0,0,0,0,0,0,0,0,0,0,0,0,0,0,0,0,0,375,0,0,0,0,0,0,0,0,0,0,0,0,0,0,0,0,0,0,0,74,0,0,0,0,0,0,0,0,0,0,0,0,175,359,0,0,0,0,0,0,0,0,0,0,0,0,0,0,0,0,0,0,0,
0,0,0,0,0,0,0,0,0,0,0,0,0,0,0,0,0,0,0,0,0,0,359,0,0,0,0,0,0,0,0,0,0,0,0,0,0,0,0,375,175,0,0,0,0,0,0,454,0,0,0,0,0,454,0,0,0,0,177,0,0,0,0,358,0,0,0,0,0,0,0,0,0,0,0,0,0,0,0,0,0,0,0,
0,0,0,0,0,0,0,0,0,0,0,0,0,0,0,0,0,0,0,375,0,0,0,0,0,376,176,0,359,0,0,376,358,177,0,0,0,0,0,0,0,0,0,0,0,0,0,0,0,74,0,0,0,0,0,358,0,0,0,0,0,0,0,0,0,0,0,0,0,0,176,0,0,0,0,0,0,0,0,0,0,0,0,
0,0,0,0,0,0,0,0,0,0,0,0,0,0,0,177,175,0,0,0,0,0,0,0,0,0,376,0,376,0,0,0,0,0,0,0,0,0,0,0,0,0,0,0,0,0,0,0,0,0,0,0,0,0,0,0,0,0,0,0,0,0,0,0,0,0,0,0,0,0,175,0,0,0,0,0,0,0,0,0,0,0,0,
0,0,0,0,0,0,0,0,0,0,454,0,0,0,0,0,0,0,0,0,0,0,0,0,0,0,0,0,0,0,0,0,0,0,0,0,176,0,0,376,359,0,0,0,175,177,0,0,0,0,0,0,0,177,0,0,0,0,0,0,0,0,0,0,0,0,175,0,0,0,0,0,0,0,0,0,0,0,0,0,0,0,0,
0,0,0,0,0,0,0,0,0,0,0,0,0,0,0,0,376,0,0,0,0,0,0,0,0,0,0,0,0,0,0,0,0,0,176,358,176,0,0,0,0,0,0,375,0,0,177,176,0,0,0,0,0,0,0,0,0,0,0,0,0,0,0,0,0,0,359,0,0,0,0,454,0,0,0,0,0,0,0,0,0,0,0,
0,0,0,0,0,0,0,0,0,0,0,0,0,0,0,0,375,0,0,0,0,0,0,0,0,0,0,0,0,0,0,0,358,0,0,0,0,0,0,0,0,0,0,0,0,0,0,0,0,0,0,376,0,0,0,0,358,0,0,0,0,0,0,0,0,0,0,358,0,0,0,0,0,0,0,0,0,0,0,0,0,0,0,
0,0,0,0,0,0,0,0,0,0,0,0,0,0,0,0,0,0,0,0,0,0,0,0,0,0,0,0,0,0,0,359,375,0,0,175,0,0,0,0,0,0,0,0,0,0,0,0,0,0,0,0,0,0,0,175,358,0,0,0,0,0,0,0,0,0,0,176,0,0,0,0,0,0,0,0,0,0,0,0,0,0,0,
0,0,0,0,0,0,0,0,0,0,0,0,176,0,0,0,176,0,0,0,0,0,0,0,0,0,0,359,0,0,0,0,0,0,0,177,0,0,0,0,0,0,0,0,0,177,0,0,0,0,0,358,0,0,0,0,0,0,0,0,0,0,0,0,0,0,0,0,0,376,359,0,0,0,0,0,0,0,0,0,0,0,0,
0,0,0,0,0,0,0,0,0,0,454,0,0,0,376,0,0,0,0,176,0,0,375,0,0,0,359,0,0,0,0,0,0,0,0,175,359,0,359,175,375,0,0,0,0,177,376,0,0,0,175,176,0,0,0,0,0,0,0,177,177,176,375,0,0,0,0,0,0,0,175,359,0,0,0,0,0,0,0,0,0,0,0,
0,0,0,0,0,0,0,0,0,0,0,0,0,0,177,0,0,0,0,375,176,0,0,0,0,175,359,0,0,0,0,175,0,0,0,0,0,0,0,0,0,0,0,0,0,0,0,0,0,0,0,0,176,359,0,0,0,0,0,0,0,0,175,176,358,0,0,0,0,0,176,175,0,0,0,0,0,0,0,0,0,0,0,
0,0,0,0,0,0,0,0,0,0,0,0,0,0,0,0,0,0,0,0,0,0,0,0,0,0,0,0,0,358,0,359,0,0,0,0,0,0,0,0,0,0,0,0,509,0,0,0,0,0,0,0,0,0,0,0,359,177,0,0,0,0,0,0,0,0,0,0,0,0,0,0,0,0,0,0,0,0,0,0,0,0,0,
0,0,0,0,0,0,0,0,0,0,0,0,0,0,0,0,0,0,0,0,0,0,0,0,0,0,0,0,0,0,0,0,0,0,0,0,0,0,0,0,0,0,0,0,0,0,328,0,0,0,0,0,0,0,0,0,0,0,0,0,0,0,0,0,0,0,0,0,0,375,375,0,0,0,0,0,0,0,0,0,0,0,0,
0,0,0,0,0,0,0,0,0,0,0,0,0,0,0,0,0,0,0,0,0,0,0,0,0,0,0,0,0,0,0,0,0,0,0,0,0,177,0,0,359,0,0,124,0,0,0,0,0,0,0,0,0,0,520,0,0,0,0,0,0,0,0,0,443,158,0,0,176,375,0,454,0,0,0,0,0,0,0,0,0,0,0,
0,0,0,0,0,0,0,0,0,0,0,194,0,0,0,0,0,0,194,0,0,0,0,0,0,0,0,0,0,0,0,0,509,0,0,0,0,0,0,0,0,0,0,0,0,109,0,0,0,0,0,0,126,126,0,0,158,158,159,0,0,0,0,0,0,0,160,0,0,0,0,0,0,0,0,0,0,0,0,0,0,0,0,
0,0,0,0,0,0,0,0,0,0,193,0,193,341,0,0,0,0,0,192,0,334,0,0,0,0,0,341,194,0,0,0,0,0,328,0,0,0,0,0,327,0,0,0,125,0,0,0,0,0,0,125,125,0,0,0,0,0,0,160,0,0,0,0,160,0,0,160,159,0,0,0,0,0,0,0,0,0,0,0,0,0,0,
0,0,0,0,0,0,0,0,0,0,334,0,0,0,0,0,0,0,0,0,0,0,0,192,0,0,0,0,0,194,520,0,327,0,0,0,109,0,0,0,0,0,0,125,126,0,0,0,0,0,125,125,0,0,0,0,158,0,158,0,0,0,0,158,159,0,0,158,158,0,159,158,0,0,0,0,0,0,0,0,0,0,0,
0,0,0,0,0,0,0,0,0,0,0,0,0,0,0,0,193,0,192,0,0,0,0,0,0,0,0,0,0,0,0,0,0,0,0,0,0,0,0,0,124,0,0,0,0,0,0,0,0,0,126,0,0,0,0,0,0,158,159,0,160,0,0,158,0,0,0,159,0,0,159,0,0,0,0,0,0,0,0,0,0,0,0,
0,0,0,0,0,0,0,0,0,0,454,0,194,0,0,0,341,0,0,0,0,0,0,0,0,192,0,0,0,0,192,0,0,0,0,0,0,0,0,124,126,0,0,0,125,124,0,0,0,0,0,0,0,0,0,0,159,158,0,0,160,159,0,0,159,0,159,158,160,160,159,0,0,0,0,0,0,0,0,0,0,0,0,
0,0,0,0,0,0,0,0,0,0,0,0,0,0,0,0,0,0,0,0,0,0,0,0,0,0,0,0,0,0,0,0,0,0,142,0,0,0,0,0,0,0,0,126,0,0,0,0,126,0,0,0,0,0,159,160,0,0,159,159,159,160,158,159,160,158,0,0,158,159,0,454,0,0,0,0,0,0,0,0,0,0,0,
0,0,0,0,0,0,0,0,0,0,192,0,0,0,0,0,0,0,0,0,0,0,0,0,0,0,0,334,0,0,0,327,0,0,0,0,0,125,0,0,0,0,0,126,124,124,125,125,126,0,0,0,328,0,443,160,160,160,0,0,0,0,158,0,159,0,0,0,0,159,160,160,0,0,0,0,0,0,0,0,0,0,0,
0,0,0,0,0,0,0,0,0,0,454,0,0,0,0,0,0,0,0,0,0,0,0,0,0,0,0,0,192,0,0,0,0,0,0,0,0,125,0,141,0,0,124,0,0,0,0,0,0,0,0,0,0,0,0,160,160,158,0,0,160,159,159,0,158,0,0,0,160,160,158,158,0,0,0,0,0,0,0,0,0,0,0,
0,0,0,0,0,0,0,0,0,0,0,0,0,0,194,0,0,0,0,0,0,0,0,0,0,0,0,0,0,0,0,192,0,0,0,0,0,125,0,0,0,125,0,0,0,0,0,0,0,0,0,0,0,0,160,160,158,160,158,160,159,0,160,0,159,0,158,159,159,0,160,0,0,0,0,0,0,0,0,0,0,0,0,
0,0,0,0,0,0,0,0,0,0,0,0,194,0,0,0,0,0,0,0,0,0,192,0,0,0,0,0,0,0,0,0,108,0,0,0,0,125,0,125,126,0,0,0,0,0,0,0,0,0,0,0,159,160,160,160,159,0,160,158,0,0,0,160,160,158,0,0,0,0,158,0,0,0,0,0,0,0,0,0,0,0,0,
0,0,0,0,0,0,0,0,0,0,0,0,0,0,0,0,0,0,193,0,0,0,0,0,0,0,0,0,0,0,0,193,0,0,143,0,0,126,125,125,126,0,143,0,0,0,0,327,0,0,0,159,159,0,160,0,0,160,158,0,158,160,159,159,160,0,158,158,158,160,0,0,0,0,0,0,0,0,0,0,0,0,0,
0,0,0,0,0,0,0,0,0,0,0,0,0,0,0,0,0,0,0,0,0,342,0,0,0,193,0,0,0,0,0,0,0,0,0,0,126,125,125,124,124,0,0,0,0,0,0,0,0,0,0,159,158,0,158,158,160,158,0,0,158,159,160,160,158,159,160,160,160,160,443,0,0,0,0,0,0,0,0,0,0,0,0,
0,0,0,0,0,0,0,0,0,0,454,0,0,0,0,0,0,0,0,0,0,0,0,0,0,0,0,0,0,0,0,0,0,108,141,0,0,0,0,0,125,0,0,0,125,125,0,0,0,0,0,159,160,0,0,160,158,159,159,159,160,159,159,160,0,0,0,0,124,0,0,324,0,0,0,0,0,0,0,0,0,0,0,
0,0,0,0,0,0,0,0,0,0,334,0,0,192,0,0,0,0,192,0,0,194,0,0,0,0,0,0,0,0,0,0,0,328,0,0,0,126,0,0,0,0,0,0,124,0,0,0,109,0,520,160,0,0,159,159,0,0,0,160,158,160,0,339,0,0,339,0,0,124,339,0,0,0,0,0,0,0,0,0,0,0,0,
0,0,0,0,0,0,0,0,0,0,0,0,0,0,0,0,342,0,0,0,0,0,0,0,0,0,193,0,0,0,192,327,0,0,0,0,0,0,0,0,328,0,0,0,125,0,0,0,0,0,159,0,158,159,159,0,0,0,160,160,158,0,0,0,0,0,0,0,0,124,339,454,0,0,0,0,0,0,0,0,0,0,0,
0,0,0,0,0,0,0,0,0,0,193,0,0,0,0,0,192,0,0,0,193,0,0,0,0,0,0,192,0,0,0,0,0,0,0,0,0,0,0,0,0,0,0,0,0,0,0,0,0,0,0,160,160,159,158,159,160,0,159,160,159,0,124,0,124,0,0,125,125,0,0,0,0,0,0,0,0,0,0,0,0,0,0,
0,0,0,0,0,0,0,0,0,0,0,0,0,193,0,0,0,0,0,0,0,0,0,193,0,0,0,0,0,0,520,0,0,0,0,124,125,143,0,143,0,0,0,0,0,0,0,0,0,0,158,158,0,158,160,160,160,159,158,0,0,0,0,126,124,0,0,126,0,0,0,0,0,0,0,0,0,0,0,0,0,0,0,
0,0,0,0,0,0,0,0,0,0,0,0,0,193,193,0,0,0,0,0,0,0,0,0,0,0,0,0,0,0,0,0,0,126,125,0,0,0,0,0,0,0,0,0,0,0,0,0,0,158,159,158,0,0,443,0,0,124,124,0,339,0,0,124,124,124,0,126,0,0,0,0,0,0,0,0,0,0,0,0,0,0,0,
0,0,0,0,0,0,0,0,0,0,0,0,0,0,0,193,0,0,192,0,0,0,0,0,0,0,0,0,0,193,0,0,0,0,0,0,0,0,0,0,0,0,0,0,0,0,0,520,0,159,0,160,0,124,124,124,339,0,0,124,0,0,124,125,126,0,0,0,0,124,339,0,0,0,0,0,0,0,0,0,0,0,0,
0,0,0,0,0,0,0,0,0,0,143,0,0,194,0,0,0,0,0,0,0,0,0,194,341,0,0,0,0,0,143,0,0,0,0,0,0,0,0,0,0,0,0,0,0,0,0,0,159,0,0,0,0,124,0,0,0,0,124,0,124,0,125,126,0,0,0,0,0,0,0,0,0,0,0,0,0,0,0,0,0,0,0,
0,0,0,0,0,0,0,0,0,0,0,0,0,0,0,342,341,0,0,0,0,0,0,0,0,0,0,194,0,0,0,0,0,0,0,0,0,0,0,0,0,0,0,0,125,142,0,0,0,0,443,159,338,124,324,124,0,0,124,0,124,125,0,324,325,0,0,0,0,0,0,454,0,0,0,0,0,0,0,0,0,0,0,
0,0,0,0,0,0,0,0,0,0,454,125,0,126,0,0,0,194,192,193,0,0,0,192,0,0,0,0,0,142,0,0,0,0,0,0,0,0,0,0,0,0,0,0,0,0,0,0,0,0,0,0,0,0,124,124,0,338,0,0,126,0,0,0,0,124,124,0,124,0,0,0,0,0,0,0,0,0,0,0,0,0,0,
0,0,0,0,0,0,0,0,0,0,0,0,0,0,0,0,0,125,0,0,0,0,0,0,0,0,0,126,0,0,0,0,124,0,0,0,0,0,125,142,0,0,0,0,0,0,0,0,0,0,0,0,0,324,0,0,0,339,0,125,0,0,0,0,0,0,0,0,339,0,0,0,0,0,0,0,0,0,0,0,0,0,0,
0,0,0,0,0,0,0,0,0,0,0,0,0,0,0,0,0,0,0,0,0,143,0,0,0,0,0,0,126,0,0,0,0,0,0,0,0,143,0,0,0,0,0,0,0,0,0,0,0,0,0,0,0,0,339,0,0,0,0,0,0,125,124,0,0,0,0,0,0,338,0,0,0,0,0,0,0,0,0,0,0,0,0,
0,0,0,0,0,0,0,0,0,0,0,0,143,0,0,143,0,0,0,0,0,0,0,0,0,0,0,0,0,0,0,0,0,0,0,0,0,0,0,0,0,0,0,0,0,0,0,0,0,0,0,0,0,0,0,0,124,0,124,0,0,0,0,324,338,0,0,0,0,0,0,0,0,0,0,0,0,0,0,0,0,0,0,
0,0,0,0,0,0,0,0,0,0,0,0,0,0,0,0,0,0,0,0,0,0,0,0,0,0,0,0,0,0,0,0,143,0,0,0,0,0,0,0,0,0,0,0,0,0,143,0,0,0,0,0,141,0,0,0,0,124,124,0,0,0,0,0,0,0,0,0,0,0,0,0,0,0,0,0,0,0,0,0,0,0,0,
0,0,0,0,0,0,0,0,0,0,126,0,124,0,0,0,0,0,0,0,0,0,0,0,0,0,0,0,0,0,0,0,0,0,0,0,0,0,0,0,0,0,0,0,0,0,142,0,0,0,0,0,0,0,126,0,0,0,324,0,0,0,0,0,0,0,0,126,0,0,0,0,0,0,0,0,0,0,0,0,0,0,0,
0,0,0,0,0,0,0,0,0,0,0,0,0,0,0,0,0,0,0,126,0,0,125,0,143,0,0,0,0,0,0,0,0,0,0,0,0,0,0,0,0,0,0,0,0,0,126,0,0,0,0,0,0,0,0,0,0,0,0,0,141,0,0,0,0,0,0,0,0,0,143,0,0,0,0,0,0,0,0,0,0,0,0,
0,0,0,0,0,0,0,0,0,0,0,0,0,125,0,0,0,0,0,0,0,0,0,0,141,124,0,0,0,0,0,0,0,0,0,0,0,0,0,0,0,0,0,0,0,0,0,0,0,0,0,0,0,0,0,0,0,0,0,0,126,0,0,0,0,0,0,0,0,0,0,0,0,0,0,0,0,0,0,0,0,0,0,
0,0,0,0,0,0,0,0,0,0,0,0,0,0,0,0,0,0,0,0,0,0,0,0,0,0,0,0,0,0,0,0,0,0,0,0,0,141,0,0,0,0,142,0,0,0,0,0,0,0,0,0,124,0,0,0,0,0,0,0,0,0,0,0,0,142,0,0,0,0,0,0,0,0,0,0,0,0,0,0,0,0,0,
0,0,0,0,0,0,0,0,0,0,0,0,0,0,0,0,0,0,0,0,0,0,0,0,0,0,0,0,0,0,0,0,0,0,0,0,0,0,0,0,0,0,0,0,0,0,0,0,0,0,0,0,0,0,0,0,0,0,0,0,0,0,0,0,0,0,0,0,124,0,0,0,0,0,0,0,0,0,0,0,0,0,0,
0,0,0,0,0,0,0,0,0,0,454,0,126,0,0,0,0,0,0,0,0,141,0,0,0,0,0,0,0,0,124,0,0,0,0,0,0,0,0,0,0,0,0,0,0,0,0,0,0,0,0,0,0,0,0,124,0,0,0,0,0,0,0,0,0,0,0,0,0,0,0,454,0,0,0,0,0,0,0,0,0,0,0,
0,0,0,0,0,0,0,0,0,0,0,0,0,0,0,0,0,126,0,0,0,0,0,0,0,0,0,0,0,0,143,0,0,0,0,0,0,0,0,0,0,0,125,0,0,0,0,0,0,0,0,0,0,0,0,0,0,0,0,0,0,0,0,0,0,0,0,0,0,0,0,0,0,0,0,0,0,0,0,0,0,0,0,
0,0,0,0,0,0,0,0,0,0,0,141,0,0,0,0,0,0,0,0,0,0,0,0,0,141,0,0,0,0,0,0,0,0,0,0,0,0,0,0,0,0,0,0,0,0,0,0,0,0,0,0,0,0,0,0,0,0,0,0,0,0,0,0,0,0,0,0,0,0,0,0,0,0,0,0,0,0,0,0,0,0,0,
0,0,0,0,0,0,0,0,0,0,0,0,0,0,0,0,0,0,0,0,0,0,0,0,0,0,0,0,0,0,0,0,0,0,0,0,0,0,0,124,143,0,0,0,0,0,0,0,0,0,0,0,0,0,0,0,0,124,0,0,0,0,0,0,0,0,0,0,0,0,0,0,0,0,0,0,0,0,0,0,0,0,0,
0,0,0,0,0,0,0,0,0,0,0,0,0,0,0,0,0,0,0,0,125,0,0,0,0,0,0,0,0,0,0,0,0,0,0,0,0,0,0,0,0,0,0,0,0,0,0,0,143,125,142,125,124,0,0,0,0,0,0,142,125,0,0,0,0,0,0,0,125,0,0,0,0,0,0,0,0,0,0,0,0,0,0,
0,0,0,0,0,0,0,0,0,0,0,0,0,0,0,0,141,0,0,0,0,0,0,0,0,0,0,0,0,0,0,0,0,0,0,0,0,0,126,0,0,0,0,0,0,0,0,0,0,0,0,0,0,0,0,0,0,0,0,0,126,142,0,0,0,0,0,0,124,0,0,0,0,0,0,0,0,0,0,0,0,0,0,
0,0,0,0,0,0,0,0,0,0,0,0,0,0,0,0,0,0,0,0,0,0,0,0,0,0,0,0,0,0,0,0,142,0,0,0,0,0,0,0,0,0,0,141,0,0,0,0,0,0,0,0,0,0,0,0,0,0,0,0,0,141,0,0,0,125,0,0,0,0,0,0,0,0,0,0,0,0,0,0,0,0,0,
0,0,0,0,0,0,0,0,0,0,0,124,0,124,124,0,0,0,0,0,0,0,0,0,125,0,0,0,0,0,0,0,0,0,0,0,0,0,0,0,0,0,0,0,0,0,0,0,0,0,0,0,0,0,0,0,0,0,0,0,0,0,0,0,0,0,0,0,0,0,0,108,0,0,0,0,0,0,0,0,0,0,0,
0,0,0,0,0,0,0,0,0,0,454,0,0,0,0,0,0,0,0,0,0,0,0,0,0,0,0,0,124,0,124,0,0,0,0,0,0,0,0,0,0,0,0,0,0,0,0,0,0,0,0,0,0,0,0,0,0,0,0,0,0,0,0,0,0,0,0,0,0,0,0,0,0,0,0,0,0,0,0,0,0,0,0,
0,0,0,0,0,0,0,0,0,0,124,0,0,0,0,0,0,0,0,0,143,0,0,0,0,0,0,0,0,0,0,0,0,124,0,0,0,0,0,0,124,125,108,0,0,0,0,0,0,0,0,0,0,0,0,0,0,0,0,0,0,0,0,0,0,0,0,0,0,0,0,0,0,0,0,0,0,0,0,0,0,0,0,
0,0,0,0,0,0,0,0,0,0,0,0,0,0,0,0,0,0,0,0,0,0,0,0,0,0,0,0,0,0,0,0,0,0,0,0,0,0,124,0,0,0,0,0,0,0,0,0,0,0,0,0,0,0,0,0,0,0,0,0,0,0,0,141,0,0,0,125,0,0,0,0,0,0,0,0,0,0,0,0,0,0,0,
0,0,0,0,0,0,0,0,0,0,0,0,0,0,0,0,0,0,0,0,0,0,0,0,0,0,0,0,124,0,0,0,0,0,0,0,0,0,0,0,0,0,0,0,0,0,0,0,0,0,0,0,0,0,0,0,0,0,0,0,0,0,0,0,0,0,0,0,0,0,0,0,0,0,0,0,0,0,0,0,0,0,0,
0,0,0,0,0,0,0,0,0,0,0,0,0,0,0,0,0,0,0,0,0,0,0,0,0,0,0,0,0,0,0,0,0,0,0,0,0,0,0,0,0,0,0,0,0,0,0,0,0,0,0,0,0,0,0,0,0,0,0,0,0,0,0,0,0,0,0,0,0,0,0,0,0,0,0,0,0,0,0,0,0,0,0,
0,0,0,0,0,0,0,0,0,0,0,0,0,0,0,0,0,0,0,0,0,0,0,0,0,0,0,0,0,0,0,0,0,0,0,0,0,0,0,0,0,0,0,0,0,0,0,0,0,0,0,0,0,0,0,0,0,0,0,0,0,0,0,0,0,0,0,0,0,0,0,0,0,0,0,0,0,0,0,0,0,0,0,
0,0,0,0,0,0,0,0,0,0,0,0,0,0,0,0,0,0,0,0,0,0,0,0,0,0,0,0,0,0,0,0,0,0,0,0,0,0,0,0,0,0,0,0,0,0,0,0,0,0,0,0,0,0,0,0,0,0,0,0,0,0,0,0,0,0,0,0,0,0,0,0,0,0,0,0,0,0,0,0,0,0,0,
0,0,0,0,0,0,0,0,0,0,0,0,0,0,0,0,0,0,0,0,0,0,0,0,0,0,0,0,0,0,0,0,0,0,0,0,0,0,0,0,0,0,0,0,0,0,0,0,0,0,0,0,0,0,0,0,0,0,0,0,0,0,0,0,0,0,0,0,0,0,0,0,0,0,0,0,0,0,0,0,0,0,0,
0,0,0,0,0,0,0,0,0,0,0,0,0,0,0,0,0,0,0,0,0,0,0,0,0,0,0,0,0,0,0,0,0,0,0,0,0,0,0,0,0,0,0,0,0,0,0,0,0,0,0,0,0,0,0,0,0,0,0,0,0,0,0,0,0,0,0,0,0,0,0,0,0,0,0,0,0,0,0,0,0,0,0,
0,0,0,0,0,0,0,0,0,0,0,0,0,0,0,0,0,0,0,0,0,0,0,0,0,0,0,0,0,0,0,0,0,0,0,0,0,0,0,0,0,0,0,0,0,0,0,0,0,0,0,0,0,0,0,0,0,0,0,0,0,0,0,0,0,0,0,0,0,0,0,0,0,0,0,0,0,0,0,0,0,0,0,
0,0,0,0,0,0,0,0,0,0,0,0,0,0,0,0,0,0,0,0,0,0,0,0,0,0,0,0,0,0,0,0,0,0,0,0,0,0,0,0,0,0,0,0,0,0,0,0,0,0,0,0,0,0,0,0,0,0,0,0,0,0,0,0,0,0,0,0,0,0,0,0,0,0,0,0,0,0,0,0,0,0,0,
0,0,0,0,0,0,0,0,0,0,0,0,0,0,0,0,0,0,0,0,0,0,0,0,0,0,0,0,0,0,0,0,0,0,0,0,0,0,0,0,0,0,0,0,0,0,0,0,0,0,0,0,0,0,0,0,0,0,0,0,0,0,0,0,0,0,0,0,0,0,0,0,0,0,0,0,0,0,0,0,0,0,0
</data>
 </layer>
</map>
